X: 2
A:Adam de la Halle
T:A Dieu comant amouretes
N: (written out)
M:3/4
L:1/4
Q:1/4=110
K:F Lydian
%
V:1 clef=treble
V:2 clef=treble-8 middle=B,
V:3 clef=treble-8 middle=B,
%%MIDI program 1       70 bassoon
%%MIDI program 2       71 clarinet
%%MIDI program 3       72 piccolo
%
[V:1]     F2  (F/4E/4D/)|(C/B,/A,) B,       |(CD) (E/F/)| G   G  (F/G/)  | A2     (G/4F/4E/)|(D/C/D E)||
[V:2]     C2   D        | E2      (E/4D/4C/)| F2   E    | D   E   F      |(E/D/E) (E/4D/4C/)| B,3     ||
[V:3]     F,2  F,       | A,2      A,       | F,2  F,   | G,  G, (F,/G,/)| A,2     A,       | G,3     ||
w:1.4.7.~A   Dieu        co-      mant       a-  mou-  re- tes,  Car*     je      m'en       vois
%
[V:1]    F2     (F/4E/4D/)|(C/B,/A,) B,       |(CD) (E/F/)|(G    F/E/ D)| F3  ||
[V:2]   (C/B,/C) D        | E2      (E/4D/4C/)| F2   E    |(D/C/ B,2)   | C3  ||
[V:3]    F,2     F,       | A,2      A,       | F,2  F,   | G,3         | F,3 ||
w: 2.8.~Sous-   pi-        rant     en        terre es-    tran-         ge
%
[V:1]     F2  (F/4E/4D/)|(C/B,/A,) B,       |(CD) (E/F/)| G   G  (F/G/)  | A2     (G/4F/4E/)|(D/C/D E)||
[V:2]     C2   D        | E2      (E/4D/4C/)| F2   E    | D   E   F      |(E/D/E) (E/4D/4C/)| B,3     ||
[V:3]     F,2  F,       | A,2      A,       | F,2  F,   | G,  G, (F,/G,/)| A,2     A,       | G,3     ||
w:  ~~3.~~Do- lans        lai-     rai        les dou-  che-tes   Et*      mout    des-       trois
%
[V:1]     F2  (F/4E/4D/)|(C/B,/A,) B,       |(CD) (E/F/)| G   G  (F/G/)  | A2     (G/4F/4E/)|(D/C/D E)||
[V:2]     C2   D        | E2      (E/4D/4C/)| F2   E    | D   E   F      |(E/D/E) (E/4D/4C/)| B,3     ||
[V:3]     F,2  F,       | A,2      A,       | F,2  F,   | G,  G, (F,/G,/)| A,2     A,       | G,3     ||
w:1.4.7.~A   Dieu        co-      mant       a-  mou-  re- tes,  Car*     je      m'en       vois
%
[V:1]     F2  (F/4E/4D/)|(C/B,/A,) B,       |(CD) (E/F/)| G   G  (F/G/)  | A2     (G/4F/4E/)|(D/C/D E)||
[V:2]     C2   D        | E2      (E/4D/4C/)| F2   E    | D   E   F      |(E/D/E) (E/4D/4C/)| B,3     ||
[V:3]     F,2  F,       | A,2      A,       | F,2  F,   | G,  G, (F,/G,/)| A,2     A,       | G,3     ||
w: ~~~5.~~J'en fe-        ro-      ie         ro-  ï-   ne- tes,  S'es-*   to-     ie         roys.
%
[V:1]    F2     (F/4E/4D/)|(C/B,/A,) B,       |(CD) (E/F/)|(G    F/E/ D)| F3  ||
[V:2]   (C/B,/C) D        | E2      (E/4D/4C/)| F2   E    |(D/C/ B,2)   | C3  ||
[V:3]    F,2     F,       | A,2      A,       | F,2  F,   | G,3         | F,3 ||
w: ~~6.~~Co-     mant       que      la        chose em-    prai-         gne
%
[V:1]     F2  (F/4E/4D/)|(C/B,/A,) B,       |(CD) (E/F/)| G   G  (F/G/)  | A2     (G/4F/4E/)|(D/C/D E)||
[V:2]     C2   D        | E2      (E/4D/4C/)| F2   E    | D   E   F      |(E/D/E) (E/4D/4C/)| B,3     ||
[V:3]     F,2  F,       | A,2      A,       | F,2  F,   | G,  G, (F,/G,/)| A,2     A,       | G,3     ||
w:1.4.7.~A   Dieu        co-      mant       a-  mou-  re- tes,  Car*     je      m'en       vois
%
[V:1]    F2     (F/4E/4D/)|(C/B,/A,) B,       |(CD) (E/F/)|(G    F/E/ D)| F3  ||
[V:2]   (C/B,/C) D        | E2      (E/4D/4C/)| F2   E    |(D/C/ B,2)   | C3  ||
[V:3]    F,2     F,       | A,2      A,       | F,2  F,   | G,3         | F,3 ||
w: 2.8.~Sous-   pi-        rant     en        terre es-    tran-         ge
